assets/azuredevicesecurityapple/original.svg

<svg height="18" viewBox="0 0 18 18" width="18" xmlns="http://www.w3.org/2000/svg" xmlns:xlink="http://www.w3.org/1999/xlink"><linearGradient id="a" gradientUnits="userSpaceOnUse" x1="11.122" x2="2.751" y1="13.92" y2="-.562"><stop offset="0" stop-color="#a33a85"/><stop offset=".998" stop-color="#dc92bf"/></linearGradient><path d="m12.494 7.023c0 4.037-4.969 7.286-6.049 7.945a.4.4 0 0 1 -.412 0c-1.081-.659-6.049-3.908-6.049-7.945v-4.856a.39.39 0 0 1 .384-.385c3.864-.103 2.975-1.769 5.871-1.769s2.006 1.666 5.871 1.769a.39.39 0 0 1 .384.385z" fill="#ce74b6"/><path d="m11.975 7.065c0 3.7-4.556 6.681-5.547 7.285a.36.36 0 0 1 -.378 0c-.991-.604-5.55-3.584-5.55-7.285v-4.454a.357.357 0 0 1 .352-.353c3.548-.094 2.731-1.622 5.387-1.622s1.84 1.528 5.384 1.622a.357.357 0 0 1 .352.353z" fill="url(#a)"/><path d="m6.05 8.645h11.418a.37.37 0 0 1 .388.346v8.676a.37.37 0 0 1 -.388.346h-11.418a.37.37 0 0 1 -.388-.346v-8.676a.37.37 0 0 1 .388-.346" fill="#dc92bf"/><g fill="#fff"><path d="m6.028 8.645h11.463a.347.347 0 0 1 .365.326v1.308h-12.194v-1.308a.35.35 0 0 1 .366-.326m10.172 5.041h-7.531c-.167 0-.3.076-.3.17v.42c0 .094.136.17.3.17h7.531c.168 0 .3-.076.3-.17v-.42c0-.094-.137-.17-.3-.17m0-1.913h-7.531c-.167 0-.3.076-.3.17v.42c0 .094.136.17.3.17h7.531c.168 0 .3-.076.3-.17v-.42c0-.094-.137-.17-.3-.17m.48 4.513h-8.028c-.178 0-.323.081-.323.181v.448c0 .1.145.182.323.182h8.028c.179 0 .324-.081.324-.182v-.448c-.004-.1-.145-.181-.324-.181" opacity=".7"/><circle cx="7.118" cy="12.153" opacity=".7" r=".498"/><circle cx="7.118" cy="14.066" opacity=".7" r=".498"/><circle cx="6.998" cy="16.691" opacity=".7" r=".531"/></g></svg>

<svg xmlns="http://www.w3.org/2000/svg" width="18" height="18" viewBox="0 0 18 18"><linearGradient id="a" x1="11.122" x2="2.751" y1="13.92" y2="-.562" gradientUnits="userSpaceOnUse"><stop offset="0" stop-color="#a33a85"/><stop offset=".998" stop-color="#dc92bf"/></linearGradient><path fill="#ce74b6" d="M12.494 7.023c0 4.037-4.969 7.286-6.049 7.945a.4.4 0 0 1-.412 0C4.952 14.309-.016 11.06-.016 7.023V2.167a.39.39 0 0 1 .384-.385C4.232 1.679 3.343.013 6.239.013s2.006 1.666 5.871 1.769a.39.39 0 0 1 .384.385z"/><path fill="url(#a)" d="M11.975 7.065c0 3.7-4.556 6.681-5.547 7.285a.36.36 0 0 1-.378 0C5.059 13.746.5 10.766.5 7.065V2.611a.357.357 0 0 1 .352-.353C4.4 2.164 3.583.636 6.239.636s1.84 1.528 5.384 1.622a.357.357 0 0 1 .352.353z"/><path fill="#dc92bf" d="M6.05 8.645h11.418a.37.37 0 0 1 .388.346v8.676a.37.37 0 0 1-.388.346H6.05a.37.37 0 0 1-.388-.346V8.991a.37.37 0 0 1 .388-.346"/><g fill="#fff"><path d="M6.028 8.645h11.463a.347.347 0 0 1 .365.326v1.308H5.662V8.971a.35.35 0 0 1 .366-.326M16.2 13.686H8.669c-.167 0-.3.076-.3.17v.42c0 .094.136.17.3.17H16.2c.168 0 .3-.076.3-.17v-.42c0-.094-.137-.17-.3-.17m0-1.913H8.669c-.167 0-.3.076-.3.17v.42c0 .094.136.17.3.17H16.2c.168 0 .3-.076.3-.17v-.42c0-.094-.137-.17-.3-.17m.48 4.513H8.652c-.178 0-.323.081-.323.181v.448c0 .1.145.182.323.182h8.028c.179 0 .324-.081.324-.182v-.448c-.004-.1-.145-.181-.324-.181" opacity=".7"/><circle cx="7.118" cy="12.153" r=".498" opacity=".7"/><circle cx="7.118" cy="14.066" r=".498" opacity=".7"/><circle cx="6.998" cy="16.691" r=".531" opacity=".7"/></g></svg>
